X: 3
T: Gavotte des Montagnes (3)
R: Gavotte
M: 4/4
L: 1/8
K: Bmin
| Bcde fgfe | (3dcB dc B2 B2| Bcde fgfe | (3dcB dc B2 B2 ||
|: Bcde fgaf | fgef d2 d2 |  Bcde fgfe | (3dcB dc B2 B2 :| 
